tools/download-figma-icons/icons/outlined-large/price-tag.svg

<svg width="64" height="64" viewBox="0 0 64 64" fill="none" xmlns="http://www.w3.org/2000/svg">
<path fill-rule="evenodd" clip-rule="evenodd" d="M60.6288 36.8019L36.8019 60.6288C36.3209 61.1098 35.4799 61.1098 34.9989 60.6288L3.37299 29.0029C3.13299 28.7619 2.99999 28.4429 2.99999 28.1019V4.27598C2.99999 3.57299 3.57199 2.99999 4.27498 2.99999H28.1019C28.4419 2.99999 28.7619 3.13299 29.0029 3.37299L60.6288 34.9989C60.8688 35.2399 61.0018 35.5599 61.0018 35.9009C61.0018 36.2409 60.8688 36.5619 60.6288 36.8019ZM62.7498 32.8779L31.1239 1.252C30.3169 0.444998 29.2429 0 28.1019 0H4.27498C1.91799 0 0 1.91799 0 4.27598V28.1019C0 29.2429 0.443998 30.3169 1.252 31.1239L32.8779 62.7498C33.7109 63.5828 34.8059 63.9998 35.8999 63.9998C36.9949 63.9998 38.0899 63.5828 38.9229 62.7498L62.7498 38.9229C64.4168 37.2559 64.4168 34.5449 62.7498 32.8779ZM45.5468 32.8917C44.7248 32.8427 44.0258 33.5167 44.0018 34.3447C43.9738 35.2557 43.8278 36.0717 43.5688 36.7667C42.4938 39.6546 39.5878 41.0766 36.0069 40.4846C34.9029 40.3016 33.8119 39.9476 32.7599 39.4566L37.1959 34.9537C37.7779 34.3637 37.7709 33.4127 37.1809 32.8317C36.5909 32.2497 35.6399 32.2577 35.0599 32.8477L30.1159 37.8677C28.7609 36.8617 27.5409 35.6357 26.5399 34.2657L31.5299 29.2007C32.1119 28.6107 32.1049 27.6607 31.5149 27.0797C30.9249 26.4967 29.9739 26.5047 29.3939 27.0947L24.9609 31.5947C24.4469 30.4857 24.0729 29.3327 23.8859 28.1647C23.4989 25.7617 23.9599 23.6207 25.1829 22.1377C26.2819 20.8037 27.9129 20.0647 29.8989 19.9997C30.7269 19.9737 31.3759 19.2807 31.3489 18.4527C31.3219 17.6407 30.6559 17.0007 29.8509 17.0007C29.8339 17.0007 29.8179 17.0007 29.8009 17.0017C26.9709 17.0937 24.5089 18.2397 22.8679 20.2297C21.0889 22.3867 20.3989 25.3737 20.9229 28.6417C21.2129 30.4467 21.8419 32.2097 22.7309 33.8587L20.9209 35.6957C20.3389 36.2857 20.3469 37.2357 20.9369 37.8167C21.2289 38.1047 21.6099 38.2477 21.9889 38.2477C22.3769 38.2477 22.7649 38.0987 23.0579 37.8007L24.4079 36.4297C25.4429 37.7747 26.6509 38.9936 27.9859 40.0286L26.5879 41.4486C26.0059 42.0376 26.0139 42.9886 26.6039 43.5696C26.8959 43.8576 27.2759 44.0006 27.6559 44.0006C28.0439 44.0006 28.4319 43.8516 28.7249 43.5536L30.5479 41.7026C32.1229 42.5536 33.7999 43.1596 35.5169 43.4436C36.2179 43.5596 36.9049 43.6176 37.5719 43.6176C41.6728 43.6166 45.0188 41.4706 46.3798 37.8137C46.7538 36.8117 46.9618 35.6757 46.9998 34.4367C47.0258 33.6087 46.3748 32.9167 45.5468 32.8917ZM10.0001 12.5002C10.0001 13.8791 11.1211 15.0001 12.5001 15.0001C13.879 15.0001 15 13.8791 15 12.5002C15 11.1212 13.879 10.0002 12.5001 10.0002C11.1211 10.0002 10.0001 11.1212 10.0001 12.5002ZM7.00007 12.5002C7.00007 9.46816 9.46806 7.00017 12.5001 7.00017C15.532 7.00017 18 9.46816 18 12.5002C18 15.5321 15.532 18.0011 12.5001 18.0011C9.46806 18.0011 7.00007 15.5321 7.00007 12.5002Z" fill="black"/>
</svg>

<svg width="64" height="64" viewBox="0 0 64 64" fill="none" xmlns="http://www.w3.org/2000/svg"><path fill-rule="evenodd" clip-rule="evenodd" d="M60.629 36.802 36.802 60.629c-.481.48-1.322.48-1.803 0L3.373 29.003A1.268 1.268 0 0 1 3 28.102V4.276C3 3.573 3.572 3 4.275 3h23.827c.34 0 .66.133.9.373L60.63 34.999c.24.24.373.56.373.902 0 .34-.133.66-.373.9Zm2.12-3.924L31.125 1.252A4.247 4.247 0 0 0 28.102 0H4.275A4.28 4.28 0 0 0 0 4.276v23.826c0 1.14.444 2.215 1.252 3.022L32.878 62.75A4.262 4.262 0 0 0 35.9 64c1.095 0 2.19-.417 3.023-1.25L62.75 38.923a4.279 4.279 0 0 0 0-6.045Zm-17.202.014c-.822-.05-1.521.625-1.545 1.453-.028.91-.174 1.727-.433 2.422-1.075 2.888-3.981 4.31-7.562 3.718a12.557 12.557 0 0 1-3.247-1.028l4.436-4.503a1.5 1.5 0 1 0-2.136-2.106l-4.944 5.02a17.01 17.01 0 0 1-3.576-3.602l4.99-5.065a1.5 1.5 0 1 0-2.136-2.106l-4.433 4.5c-.514-1.11-.888-2.262-1.075-3.43-.387-2.403.074-4.544 1.297-6.027 1.099-1.334 2.73-2.073 4.716-2.138a1.5 1.5 0 0 0-.049-3h-.05c-2.83.093-5.292 1.239-6.933 3.229-1.78 2.157-2.47 5.144-1.945 8.412.29 1.805.919 3.568 1.808 5.217l-1.81 1.837a1.5 1.5 0 1 0 2.137 2.105l1.35-1.371a19.985 19.985 0 0 0 3.578 3.599l-1.398 1.42a1.5 1.5 0 1 0 2.137 2.105l1.823-1.851c1.575.85 3.252 1.457 4.969 1.74.7.117 1.388.175 2.055.175 4.1-.001 7.447-2.147 8.808-5.804.374-1.002.582-2.138.62-3.377a1.499 1.499 0 0 0-1.453-1.545ZM10 12.5c0 1.38 1.121 2.5 2.5 2.5s2.5-1.12 2.5-2.5c0-1.379-1.121-2.5-2.5-2.5a2.502 2.502 0 0 0-2.5 2.5Zm-3 0C7 9.468 9.468 7 12.5 7S18 9.468 18 12.5s-2.468 5.501-5.5 5.501a5.508 5.508 0 0 1-5.5-5.5Z" fill="currentColor"/></svg>
